images/projects/sf-shippingbox.svg

<svg height="26.8677" width="25" xmlns="http://www.w3.org/2000/svg"><path d="m0 0h25v26.8677h-25z" opacity="0"/><path d="m1.70898 21.1304 9.60692 5.4443c.6836.3906 1.3306.3906 2.0264 0l9.5947-5.4443c1.1231-.6348 1.709-1.2818 1.709-3.0274v-9.66794c0-1.26953-.4639-2.06299-1.4893-2.64893l-8.6425-4.907224c-1.4771-.8422849-2.9053-.8422849-4.3824 0l-8.63034 4.907224c-1.037593.58594-1.50146 1.3794-1.50146 2.64893v9.66794c0 1.7456.598145 2.3926 1.70898 3.0274zm1.09864-1.6114c-.70801-.3906-.95215-.8056-.95215-1.477v-9.21632l9.50923 5.43212v10.1318zm19.04298 0-8.5694 4.8706v-10.1318l9.5093-5.43212v9.21632c0 .6714-.2441 1.0864-.9399 1.477zm-9.5215-6.9702-9.42383-5.33444 3.77198-2.16065 9.42385 5.35889zm5.7373-3.24704-9.46044-5.34668 2.34374-1.33057c.9399-.53711 1.8066-.54931 2.7588 0l8.0444 4.58985z" fill="#fff" fill-opacity=".85"/></svg>

<?xml version="1.0" encoding="UTF-8"?>
<!--Generator: Apple Native CoreSVG 232.5-->
<!DOCTYPE svg
PUBLIC "-//W3C//DTD SVG 1.1//EN"
       "http://www.w3.org/Graphics/SVG/1.1/DTD/svg11.dtd">
<svg version="1.1" xmlns="http://www.w3.org/2000/svg" xmlns:xlink="http://www.w3.org/1999/xlink" width="25" height="26.8677">
 <g>
  <rect height="26.8677" opacity="0" width="25" x="0" y="0"/>
  <path d="M1.70898 21.1304L11.3159 26.5747C11.9995 26.9653 12.6465 26.9653 13.3423 26.5747L22.937 21.1304C24.0601 20.4956 24.646 19.8486 24.646 18.103L24.646 8.43506C24.646 7.16553 24.1821 6.37207 23.1567 5.78613L14.5142 0.878906C13.0371 0.0366211 11.6089 0.0366211 10.1318 0.878906L1.50146 5.78613C0.463867 6.37207 0 7.16553 0 8.43506L0 18.103C0 19.8486 0.598145 20.4956 1.70898 21.1304ZM2.80762 19.519C2.09961 19.1284 1.85547 18.7134 1.85547 18.042L1.85547 8.82568L11.3647 14.2578L11.3647 24.3896ZM21.8506 19.519L13.2812 24.3896L13.2812 14.2578L22.7905 8.82568L22.7905 18.042C22.7905 18.7134 22.5464 19.1284 21.8506 19.519ZM12.3291 12.5488L2.90527 7.21436L6.67725 5.05371L16.1011 10.4126ZM18.0664 9.30176L8.60596 3.95508L10.9497 2.62451C11.8896 2.0874 12.7563 2.0752 13.7085 2.62451L21.7529 7.21436Z" fill="#fff" fill-opacity="0.85"/>
 </g>
</svg>
